svg/OSM-icons/amenity #7bffff °373737 !label=enamenities,deEinrichtungen/12400;amenity=fast_food;!cuisine=;feature_group=food;[fast_food];!label=enfast food,deFast Food allgemein.svg

<svg xmlns="http://www.w3.org/2000/svg" viewBox="0 0 580 580" enable-background="new 0 0 580 580"><path fill="#111" stroke="#eee" stroke-width="3.408" d="m66.28 1.768c-41.34 0-64.57 21.371-64.57 65.04v450.12c0 40.844 20.895 62.23 62.19 62.23h452.02c41.31 0 62.23-20.315 62.23-62.23v-450.12c0-42.601-20.924-65.04-63.52-65.04-.004 0-448.5-.143-448.35 0z"/><path fill="#fff" d="m506.76 83.52l-31.14 109.86h-158.6l38.19 303.11h129.81l38.776-303.11h-29.364l30.547-104.57-18.214-5.289m-208.54 286.67c3.131-27.416-17.622-42.3-62.26-44.639h-107.51c-44.639 2.344-65.59 17.223-62.853 44.639h232.62m-232.62 82.25c-2.737 27.404 18.214 42.09 62.853 44.05h107.51c44.639-1.961 65.39-16.643 62.26-44.05h-232.62m222.64-61.1h-213.24c-5.474 0-10.171 1.957-14.09 5.871s-5.88 8.416-5.88 13.508c0 5.881 1.96 10.678 5.88 14.395 3.92 3.719 8.617 5.576 14.09 5.576h213.24c5.485 0 10.186-1.857 14.1-5.576 3.914-3.717 5.871-8.514 5.871-14.395 0-5.092-1.957-9.594-5.871-13.508s-8.614-5.871-14.1-5.871"/></svg>

<?xml version="1.0" encoding="utf-8"?>
<!-- Generator: Adobe Illustrator 15.0.0, SVG Export Plug-In . SVG Version: 6.00 Build 0)  -->
<!DOCTYPE svg PUBLIC "-//W3C//DTD SVG 1.1//EN" "http://www.w3.org/Graphics/SVG/1.1/DTD/svg11.dtd">
<svg version="1.1" xmlns="http://www.w3.org/2000/svg" xmlns:xlink="http://www.w3.org/1999/xlink" x="0px" y="0px" width="580px"
	 height="580px" viewBox="0 0 580 580" enable-background="new 0 0 580 580" xml:space="preserve">
<g id="Layer_1">
	<g id="Layer_2">
		<g id="g1327">
			<path id="path1329" fill="#111111" stroke="#EEEEEE" stroke-width="3.408" d="M66.275,1.768
				c-41.335,0-64.571,21.371-64.571,65.036v450.123c0,40.844,20.895,62.229,62.192,62.229H515.92
				c41.307,0,62.229-20.315,62.229-62.229V66.804c0-42.601-20.924-65.036-63.521-65.036C514.624,1.768,66.133,1.625,66.275,1.768z"
				/>
		</g>
	</g>
</g>
<g id="Layer_3">
	<g>
		<path id="flowRoot3192" fill="#FFFFFF" d="M506.765,83.516l-31.139,109.857H317.025l38.185,303.111h129.81l38.776-303.111h-29.364
			l30.547-104.568L506.765,83.516z M298.22,370.188c3.131-27.416-17.622-42.295-62.261-44.639H128.451
			c-44.639,2.344-65.589,17.223-62.853,44.639H298.22z M65.598,452.438c-2.737,27.404,18.214,42.086,62.853,44.047h107.508
			c44.639-1.961,65.392-16.643,62.261-44.047H65.598z M288.234,391.342H74.992c-5.474,0-10.171,1.957-14.091,5.871
			s-5.88,8.416-5.88,13.508c0,5.881,1.96,10.678,5.88,14.395c3.92,3.719,8.617,5.576,14.091,5.576h213.242
			c5.485,0,10.186-1.857,14.1-5.576c3.914-3.717,5.871-8.514,5.871-14.395c0-5.092-1.957-9.594-5.871-13.508
			S293.72,391.342,288.234,391.342L288.234,391.342z"/>
	</g>
</g>
</svg>
